resources/themes/cura/icons/tab_monitor_connected.svg

<?xml version="1.0" encoding="UTF-8" standalone="no"?>
<svg
   xmlns:sketch="http://www.bohemiancoding.com/sketch/ns"
   xmlns:dc="http://purl.org/dc/elements/1.1/"
   xmlns:cc="http://creativecommons.org/ns#"
   xmlns:rdf="http://www.w3.org/1999/02/22-rdf-syntax-ns#"
   xmlns:svg="http://www.w3.org/2000/svg"
   xmlns="http://www.w3.org/2000/svg"
   xmlns:sodipodi="http://sodipodi.sourceforge.net/DTD/sodipodi-0.dtd"
   xmlns:inkscape="http://www.inkscape.org/namespaces/inkscape"
   width="19px"
   height="19px"
   viewBox="0 0 19 19"
   version="1.1"
   id="svg2"
   inkscape:version="0.91 r13725"
   sodipodi:docname="tab_monitor_connected.svg">
  <metadata
     id="metadata15">
    <rdf:RDF>
      <cc:Work
         rdf:about="">
        <dc:format>image/svg+xml</dc:format>
        <dc:type
           rdf:resource="http://purl.org/dc/dcmitype/StillImage" />
        <dc:title>Fill 1 Copy 3</dc:title>
      </cc:Work>
    </rdf:RDF>
  </metadata>
  <sodipodi:namedview
     pagecolor="#ff0000"
     bordercolor="#666666"
     borderopacity="1"
     objecttolerance="10"
     gridtolerance="10"
     guidetolerance="10"
     inkscape:pageopacity="0"
     inkscape:pageshadow="2"
     inkscape:window-width="1920"
     inkscape:window-height="1171"
     id="namedview13"
     showgrid="false"
     inkscape:zoom="12.421053"
     inkscape:cx="1.7513815"
     inkscape:cy="14.488439"
     inkscape:window-x="0"
     inkscape:window-y="0"
     inkscape:window-maximized="1"
     inkscape:current-layer="svg2" />
  <!-- Generator: Sketch 3.4.4 (17249) - http://www.bohemiancoding.com/sketch -->
  <title
     id="title4">Fill 1 Copy 3</title>
  <desc
     id="desc6">Created with Sketch.</desc>
  <defs
     id="defs8" />
  <g
     id="Page-1"
     sketch:type="MSPage"
     stroke-width="1"
     stroke="none"
     fill-rule="evenodd"
     fill="none"
     style="fill:#ffffff">
    <g
       id="HIG"
       sketch:type="MSArtboardGroup"
       transform="translate(-718.000000, -2432.000000)"
       fill="#FFFFFF"
       style="fill:#ffffff">
      <path
         d="M718,2432 L737,2432 L737,2432.90476 L718,2432.90476 L718,2432 L718,2432 Z M718,2450.09524 L719.737762,2450.09524 L721.464456,2449.19048 L733.599225,2449.19048 L735.296978,2450.09524 L737,2450.09524 L737,2451 L735.298343,2451 L733.599225,2450.09524 L721.463296,2450.09524 L719.737762,2450.99006 L718,2451 L718,2450.09524 L718,2450.09524 Z M736.136364,2432.90476 L737,2432.90476 L737,2450.09524 L736.136364,2450.09524 L736.136364,2432.90476 L736.136364,2432.90476 Z M718,2432.90476 L718.863636,2432.90476 L718.863636,2450.09524 L718,2450.09524 L718,2432.90476 L718,2432.90476 Z M720.590909,2434.71429 L734.409091,2434.71429 L734.409091,2447.38095 L720.590909,2447.38095 L720.590909,2434.71429 L720.590909,2434.71429 Z M721.454545,2435.61905 L733.545455,2435.61905 L733.545455,2446.47619 L721.454545,2446.47619 L721.454545,2435.61905 L721.454545,2435.61905 Z M725.772727,2435.61905 L729.227273,2435.61905 L729.227273,2438.33333 L725.772727,2438.33333 L725.772727,2435.61905 L725.772727,2435.61905 Z M723.181818,2445.57143 L731.818182,2445.57143 L731.818182,2446.47619 L723.181818,2446.47619 L723.181818,2445.57143 L723.181818,2445.57143 Z M726.636364,2438.33333 L728.363636,2438.33333 L728.363636,2439.2381 L726.636364,2439.2381 L726.636364,2438.33333 L726.636364,2438.33333 Z"
         id="Fill-1-Copy-3"
         sketch:type="MSShapeGroup"
         style="fill:#ffffff" />
    </g>
  </g>
  <circle
     style="opacity:1;fill:#00ff00;fill-opacity:1;stroke:none;stroke-width:7.21899986;stroke-miterlimit:4;stroke-dasharray:none;stroke-opacity:1"
     id="path3349"
     cx="15.598516"
     cy="3.3813558"
     r="3.381356" />
  <path
     style="opacity:1;fill:#ffffff;fill-opacity:1;stroke:none;stroke-width:7.21899986;stroke-miterlimit:4;stroke-dasharray:none;stroke-opacity:1"
     id="path3395"
     d="m 14.055255,3.7946296 c 0.0056,0.082374 0.03961,0.1572641 0.07827,0.2288476 0.07278,0.1083413 0.152541,0.2120476 0.23097,0.3164013 0.01409,0.020368 0.02848,0.040533 0.04227,0.061105 0.05112,0.076259 0.02833,0.046428 0.07964,0.121759 0.04067,0.059698 0.08486,0.1161551 0.130136,0.1723732 0.01527,0.015799 0.02984,0.032294 0.0458,0.047396 0.02999,0.028387 0.06535,0.054984 0.0971,0.081341 0.04174,0.034657 0.08284,0.069287 0.126014,0.1021755 0.07147,0.053394 0.136179,0.1149036 0.202461,0.174408 0.06012,0.059433 0.127039,0.1102648 0.196756,0.1577552 0.05246,0.038242 0.1095,0.069187 0.173149,0.082994 0.01,0.00145 0.01991,0.00367 0.02999,0.00434 0.03761,0.00251 0.06419,-0.00925 0.09526,-0.029775 0.01308,-0.00864 0.0518,-0.035233 0.03812,-0.027566 -0.176215,0.098774 -0.350653,0.200685 -0.52598,0.3010275 0.07272,-0.050833 0.136798,-0.1133407 0.190444,-0.1840011 0.03168,-0.041732 0.05367,-0.078729 0.08173,-0.1231298 0.09256,-0.1542084 0.194619,-0.3025121 0.282885,-0.4592457 0.100515,-0.1768321 0.171481,-0.3682665 0.243208,-0.5580218 0.07093,-0.1932781 0.140196,-0.3872842 0.199226,-0.5845544 0.03983,-0.1447381 0.07021,-0.291915 0.107648,-0.4372334 0.01351,-0.052435 0.04491,-0.1588433 0.06023,-0.2114633 0.04833,-0.1858462 0.103347,-0.3697999 0.161712,-0.5527085 0.04763,-0.1524698 0.110159,-0.2993612 0.16937,-0.4474828 0.03459,-0.089335 0.07283,-0.1771814 0.108803,-0.265955 0.01616,-0.047241 0.03663,-0.092636 0.05624,-0.1384645 0.0077,-0.016191 0.01319,-0.033093 0.01821,-0.050249 0,0 0.623665,-0.291909 0.623665,-0.291909 l 0,0 c -0.0073,0.017835 -0.01149,0.036139 -0.01767,0.054399 -0.01946,0.04851 -0.04536,0.093499 -0.06412,0.1423168 -0.03934,0.091492 -0.08306,0.1808834 -0.12231,0.2724186 -0.01974,0.044567 -0.03877,0.089451 -0.05858,0.1339872 -0.01081,0.024306 -0.02294,0.048031 -0.0332,0.072577 -0.03295,0.078869 -0.05968,0.1604381 -0.089,0.2406679 -0.06385,0.1827766 -0.119937,0.3682527 -0.171318,0.5549025 -0.01314,0.042986 -0.05103,0.1657296 -0.06266,0.2088087 -0.0393,0.1456149 -0.07114,0.2933691 -0.106804,0.4398791 -0.05463,0.1989379 -0.118804,0.3952646 -0.193298,0.5876856 -0.07234,0.190198 -0.140329,0.3833427 -0.234701,0.5639522 -0.0146,0.027547 -0.0284,0.055535 -0.0438,0.082641 -0.03821,0.067235 -0.05776,0.092436 -0.09885,0.1575771 -0.04539,0.071956 -0.08827,0.1454804 -0.131638,0.2186573 -0.0011,0.00181 -0.07371,0.1251723 -0.07573,0.1282828 -0.04871,0.074827 -0.109766,0.1420965 -0.177555,0.1999238 -0.206453,0.1225748 -0.411927,0.2468139 -0.619359,0.3677244 -0.06411,0.037373 -0.134117,0.036444 -0.202899,0.01451 -0.0662,-0.024158 -0.126287,-0.06017 -0.181509,-0.1040062 -0.07001,-0.051181 -0.137863,-0.1049365 -0.200914,-0.1646544 -0.06463,-0.058519 -0.127255,-0.1192953 -0.195921,-0.1732371 -0.04225,-0.034414 -0.08216,-0.070811 -0.122737,-0.1071739 -0.02298,-0.020591 -0.07764,-0.06857 -0.09829,-0.089394 -0.01683,-0.016973 -0.03222,-0.035318 -0.04834,-0.052978 -0.0443,-0.058875 -0.09007,-0.1165942 -0.131764,-0.1773769 -0.07683,-0.112002 -0.0042,-0.00964 -0.07861,-0.1204978 -0.01333,-0.019857 -0.02745,-0.039173 -0.04118,-0.058759 -0.08095,-0.1065644 -0.165532,-0.2104372 -0.244461,-0.3184601 -0.0092,-0.015471 -0.01921,-0.030536 -0.02774,-0.046414 -0.0326,-0.060683 -0.05392,-0.1267229 -0.07579,-0.1917034 0,0 0.607434,-0.3264251 0.607434,-0.3264251 z"
     inkscape:connector-curvature="0" />
</svg>

<?xml version="1.0" encoding="UTF-8" standalone="no"?>
<svg
   xmlns:sketch="http://www.bohemiancoding.com/sketch/ns"
   xmlns:dc="http://purl.org/dc/elements/1.1/"
   xmlns:cc="http://creativecommons.org/ns#"
   xmlns:rdf="http://www.w3.org/1999/02/22-rdf-syntax-ns#"
   xmlns:svg="http://www.w3.org/2000/svg"
   xmlns="http://www.w3.org/2000/svg"
   xmlns:sodipodi="http://sodipodi.sourceforge.net/DTD/sodipodi-0.dtd"
   xmlns:inkscape="http://www.inkscape.org/namespaces/inkscape"
   width="30"
   height="30"
   viewBox="0 0 30 30"
   version="1.1"
   id="svg2"
   inkscape:version="0.91 r13725"
   sodipodi:docname="tab_monitor_connected.svg">
  <metadata
     id="metadata15">
    <rdf:RDF>
      <cc:Work
         rdf:about="">
        <dc:format>image/svg+xml</dc:format>
        <dc:type
           rdf:resource="http://purl.org/dc/dcmitype/StillImage" />
        <dc:title>Fill 1 Copy 3</dc:title>
      </cc:Work>
    </rdf:RDF>
  </metadata>
  <sodipodi:namedview
     pagecolor="#000000"
     bordercolor="#666666"
     borderopacity="1"
     objecttolerance="10"
     gridtolerance="10"
     guidetolerance="10"
     inkscape:pageopacity="0"
     inkscape:pageshadow="2"
     inkscape:window-width="1280"
     inkscape:window-height="748"
     id="namedview13"
     showgrid="false"
     showborder="true"
     inkscape:zoom="18.366667"
     inkscape:cx="15"
     inkscape:cy="15"
     inkscape:window-x="-8"
     inkscape:window-y="-8"
     inkscape:window-maximized="1"
     inkscape:current-layer="svg2"
     inkscape:snap-global="true"
     inkscape:object-nodes="false"
     inkscape:snap-smooth-nodes="false"
     inkscape:snap-midpoints="false"
     inkscape:snap-intersection-paths="false"
     inkscape:snap-bbox="true"
     inkscape:snap-others="false"
     inkscape:snap-nodes="false" />
  <!-- Generator: Sketch 3.4.4 (17249) - http://www.bohemiancoding.com/sketch -->
  <title
     id="title4">Fill 1 Copy 3</title>
  <desc
     id="desc6">Created with Sketch.</desc>
  <defs
     id="defs8" />
  <g
     id="Page-1"
     sketch:type="MSPage"
     style="fill:none;fill-rule:evenodd;stroke:none;stroke-width:1"
     transform="matrix(1.3157895,0,0,1.3157895,2.5,2.4999995)">
    <g
       id="HIG"
       sketch:type="MSArtboardGroup"
       transform="translate(-718,-2432)"
       style="fill:#ffffff">
      <path
         d="m 718,2432 19,0 0,0.9048 -19,0 0,-0.9048 0,0 z m 0,18.0952 1.73776,0 1.7267,-0.9047 12.13477,0 1.69775,0.9047 1.70302,0 0,0.9048 -1.70166,0 -1.69911,-0.9048 -12.13593,0 -1.72554,0.8949 L 718,2451 l 0,-0.9048 0,0 z m 18.13636,-17.1904 0.86364,0 0,17.1904 -0.86364,0 0,-17.1904 0,0 z m -18.13636,0 0.86364,0 0,17.1904 -0.86364,0 0,-17.1904 0,0 z m 2.59091,1.8095 13.81818,0 0,12.6667 -13.81818,0 0,-12.6667 0,0 z m 0.86364,0.9047 12.0909,0 0,10.8572 -12.0909,0 0,-10.8572 0,0 z m 4.31818,0 3.45454,0 0,2.7143 -3.45454,0 0,-2.7143 0,0 z m -2.59091,9.9524 8.63636,0 0,0.9048 -8.63636,0 0,-0.9048 0,0 z m 3.45454,-7.2381 1.72728,0 0,0.9048 -1.72728,0 0,-0.9048 0,0 z"
         id="Fill-1-Copy-3"
         sketch:type="MSShapeGroup"
         inkscape:connector-curvature="0" />
    </g>
  </g>
  <circle
     style="fill:#00cd00;fill-opacity:1"
     id="path3337"
     cx="22.5"
     cy="7.5"
     r="7.5" />
  <path
     style="fill:#ffffff;fill-opacity:1"
     d="M 25.546876,4.3017582 21.994141,7.9208992 19.859375,5.8408211 18.5,7.2177742 22.072266,10.698242 C 23.732574,9.0171252 25.519159,7.1853281 26.97461,5.7021492 Z"
     id="rect4171"
     inkscape:connector-curvature="0"
     sodipodi:nodetypes="ccccccc" />
</svg>
